X: 1
T: Calvin Cycle
C: Ethan Hazzard-Watkins, 2008
R: reel
M: 4/4
L: 1/4
K: Dmin
Q: 230
"Dm" DEFA-|A f e/d/ c |"Bb" dcAG-|GA "C"E2 |
"Dm" DEFA-|A f e/d/ c-|1"Bb"cdcA | GA "C" E2 :|2 "Bb" cd-de | fe"C"fg ||
|:"Bb" a3 g-|g efd |"C" ecdA-|A A/B/ A/G/ F | "Gm" GBAD-|1D Ade |
"Am" ffge-|e d e/f/ g:|2D DFD| "Am"GGAE-|E EFE ||